!!!OTL-incipit: 'S IST NICHTS MIT DEN ALTEN WEIBERN
!!!ARE: Europa, Mitteleuropa, Deutschland
!!!SCT: Z0121
!!!TXL: @@DE
!!!YEM: Copyright 1995, estate of Helmut Schaffrath.
**kern	**text
*ICvox	*
*M3/4	*
*k[f#]	*
*G:	*
!LO:TX:a:t=Altdeutſch.	!
{4g	'S_iſt
=1	=1
4dd	nichts
8dd	mit
8ee	den
8dd	al-
8cc	-ten
=2	=2
4b	Wei-
4g}	-bern,
{8bL	bin
8ddJ	.
=3	=3
4cc	froh,
8cc	daß
8dd	ich
8b	kei-
8dd	-ne
=4	=4
2a}	hab'.
=:|:	=:|:
{4g	'S_iſt
=5	=5
4dd	nichts
8dd	mit
8ee	den
8dd	al-
8cc	-ten
=6	=6
4b	Wei-
4g}	-bern,
{8bL	bin
8ddJ	.
=7	=7
4cc	froh,
8cc	daß
8dd	ich
8b	kei-
8dd	-ne
=8	=8
2a}	hab'.
{8f#	Lie-
8g	-ber
=9	=9
4a	frei'
4a	ich
8a	mir'n
8g	jung
=10	=10
4f#	Mä-
4d}	-del,
{8g	lie-
8b/	-ber
=11	=11
4dd	frei'
4dd	ich
8dd	mir'n
8cc	jung
=12	=12
4b/	Mä-
4g}	-del,
{8dd	da
8b	ich
=13	=13
4ee	Freud'
4cc	daran
4a	.
=14	=14
2dd}	hab',
{8dd	da
8dd	ich
=15	=15
4ee	Freud'
4cc	daran
4a	.
=16	=16
2g}	hab'.
==	==
!!!AGN: Erzaehlung, lustige Romanze
!!!ONB: ESAC (Essen Associative Code) Database: ZUCCAL
!!!AMT: simple triple
!!!AIN: vox
!!!EED: Helmut Schaffrath
!!!EEV: 1.0
!!!GTL: II. Erzahlungen, lustige Romanzen, Kinder-Lieder und episch-lyrische Volks-Lieder.
!!!URL-scan: https://www.digitale-sammlungen.de/de/view/bsb11160571?page=230
!!!ENC: Anna Maria Matuszewska
!!!EEV: 2025/01/27
*-	*-
